X: 1
T: Polska efter Smultrongrds Ida
B: Melodier frn Upplands bruk och Fyris bygder hfte 1, s. 20
O: Uppland
R: Polska
S: uppteckning efter G Gustavsson, Knypplan
Z: 2008-06-01 av Nils L
D: Skivan "Hrdhajen" med gruppen Hulling utgiven p Drone, spr 3 (http://www.drone.se/mp3/drone/DROCD015x03.mp3|ljudprov - mp3)
M: 3/4
K: C
L: 1/16
G2>c2 e2c2 (dc)BA | G2>c2 e2c2 (dc)BA | G2>c2 c2e2 e2g2 | g2>B2 d4 d4 |
G2Bd f2f2 (df)dB | G2Bd f2f2 d2B2 | G2>A2 B2c2 d2e2 | (fd)Bd c6 z2 ::
[c4e4] e2fe d2ed | c2cd e2ce g4 | a2>(g2 f2)e2 d2c2 | B2g2 g2ag e2c2 |
[c4e4] e2fe d2ed | c2cd e2ce g4 | a2>(g2 f2)e2 d2c2 | (Bc)dB [c6E6] z2 :|
